svg/fluentui-system-icons/ic_fluent_library_16_filled.svg

<svg width="16" height="16" viewBox="0 0 16 16" fill="none" xmlns="http://www.w3.org/2000/svg">
<path d="M2.24897 2C1.55918 2 1 2.55938 1 3.2494V12.7448C1 13.4349 1.55918 13.9942 2.24897 13.9942H2.74855C3.43834 13.9942 3.99752 13.4349 3.99752 12.7448V3.2494C3.99752 2.55938 3.43834 2 2.74855 2H2.24897ZM6.24566 2C5.55588 2 4.9967 2.55938 4.9967 3.2494V12.7448C4.9967 13.4349 5.55588 13.9942 6.24566 13.9942H6.74525C7.43504 13.9942 7.99422 13.4349 7.99422 12.7448V3.2494C7.99422 2.55938 7.43504 2 6.74525 2H6.24566ZM11.9722 4.77692C11.7231 4.15743 11.031 3.84341 10.401 4.06395L9.81879 4.26774C9.14648 4.50307 8.80673 5.2523 9.07258 5.91334L12.0097 13.2166C12.2588 13.8361 12.9509 14.1502 13.581 13.9296L14.1632 13.7258C14.8355 13.4904 15.1752 12.7412 14.9093 12.0802L11.9722 4.77692Z" fill="#212121"/>
</svg>

<svg xmlns="http://www.w3.org/2000/svg" width="16" height="16"><path d="M2.249 2C1.559 2 1 2.56 1 3.25v9.495c0 .69.56 1.25 1.249 1.25h.5c.69 0 1.249-.56 1.249-1.25V3.249c0-.69-.56-1.249-1.25-1.249H2.25Zm3.997 0c-.69 0-1.25.56-1.25 1.25v9.495c0 .69.56 1.25 1.25 1.25h.5a1.25 1.25 0 0 0 1.248-1.25V3.249A1.25 1.25 0 0 0 6.745 2h-.5Zm5.726 2.777a1.249 1.249 0 0 0-1.571-.713l-.582.204a1.25 1.25 0 0 0-.746 1.645l2.937 7.304c.249.62.94.933 1.571.713l.582-.204a1.25 1.25 0 0 0 .746-1.646l-2.937-7.303Z"/></svg>
